X: 26493
T: Michael Joe Kennedy's
R: reel
M: 4/4
K: Adorian
|:eAAB cBAa|aAAG ABcd|eAAB cBAG|g2BA GABd:|
|:~a3a gedg|eaag ~a3a|eaae aede|g2BA GABd:|

